frontend/src/assets/skills/helm-original.svg

<?xml version="1.0" encoding="UTF-8"?>
<svg xmlns="http://www.w3.org/2000/svg" xmlns:xlink="http://www.w3.org/1999/xlink" width="128px" height="128px" viewBox="0 0 128 128" version="1.1">
<g id="surface1">
<path style=" stroke:none;fill-rule:nonzero;fill:rgb(15.294118%,47.843137%,62.352941%);fill-opacity:1;" d="M 90.132812 95.839844 C 92.277344 94.394531 97.214844 97.566406 101.117188 102.933594 C 105.015625 108.304688 106.460938 113.832031 104.292969 115.277344 C 102.148438 116.726562 97.214844 113.554688 93.3125 108.1875 C 89.410156 102.816406 87.984375 97.289062 90.132812 95.839844 Z M 90.132812 95.839844 "/>
<path style=" stroke:none;fill-rule:nonzero;fill:rgb(15.294118%,47.843137%,62.352941%);fill-opacity:1;" d="M 38.601562 95.839844 C 36.453125 94.394531 31.519531 97.566406 27.617188 102.933594 C 23.695312 108.304688 22.273438 113.832031 24.4375 115.277344 C 26.605469 116.726562 31.519531 113.554688 35.421875 108.1875 C 39.324219 102.816406 40.769531 97.289062 38.601562 95.839844 Z M 38.601562 95.839844 "/>
<path style=" stroke:none;fill-rule:nonzero;fill:rgb(15.294118%,47.843137%,62.352941%);fill-opacity:1;" d="M 64.347656 104.242188 C 61.722656 104.242188 59.578125 109.554688 59.578125 116.113281 C 59.578125 122.671875 61.703125 127.980469 64.347656 127.980469 C 66.988281 127.980469 69.117188 122.671875 69.117188 116.113281 C 69.117188 109.554688 66.96875 104.242188 64.347656 104.242188 Z M 64.347656 104.242188 "/>
<path style=" stroke:none;fill-rule:nonzero;fill:rgb(15.294118%,47.843137%,62.352941%);fill-opacity:1;" d="M 90.132812 32.238281 C 92.277344 33.683594 97.214844 30.515625 101.117188 25.144531 C 105.015625 19.773438 106.460938 14.246094 104.292969 12.800781 C 102.148438 11.355469 97.214844 14.523438 93.3125 19.894531 C 89.410156 25.261719 87.984375 30.792969 90.132812 32.238281 Z M 90.132812 32.238281 "/>
<path style=" stroke:none;fill-rule:nonzero;fill:rgb(15.294118%,47.843137%,62.352941%);fill-opacity:1;" d="M 38.601562 32.238281 C 36.453125 33.683594 31.519531 30.515625 27.617188 25.144531 C 23.714844 19.773438 22.273438 14.265625 24.4375 12.800781 C 26.605469 11.332031 31.519531 14.523438 35.421875 19.894531 C 39.324219 25.261719 40.769531 30.792969 38.601562 32.238281 Z M 38.601562 32.238281 "/>
<path style=" stroke:none;fill-rule:nonzero;fill:rgb(15.294118%,47.843137%,62.352941%);fill-opacity:1;" d="M 64.347656 23.835938 C 61.722656 23.835938 59.578125 18.527344 59.578125 11.96875 C 59.578125 5.410156 61.703125 0.0976562 64.347656 0.0976562 C 66.988281 0.0976562 69.117188 5.410156 69.117188 11.96875 C 69.117188 18.527344 66.96875 23.835938 64.347656 23.835938 Z M 64.347656 23.835938 "/>
<path style="fill:none;stroke-width:30;stroke-linecap:butt;stroke-linejoin:miter;stroke:rgb(15.294118%,47.843137%,62.352941%);stroke-opacity:1;stroke-miterlimit:4;" d="M 470.200625 215.593335 C 433.002139 154.399976 365.605899 113.492688 288.692446 113.492688 C 213.80353 113.492688 147.996646 152.191968 110.306216 210.704175 M 114.298525 445.995007 C 152.594424 501.096631 216.395693 537.095044 288.692446 537.095044 C 361.102725 537.095044 424.998599 500.899487 463.294497 445.699292 " transform="matrix(0.206452,0,0,0.198142,4.000541,0.0396285)"/>
<path style=" stroke:none;fill-rule:nonzero;fill:rgb(15.294118%,47.843137%,62.352941%);fill-opacity:1;" d="M 0.125 48.40625 L 9.289062 48.40625 L 9.289062 60.789062 L 19.632812 60.789062 L 19.632812 48.40625 L 28.800781 48.40625 L 28.800781 81.675781 L 19.632812 81.675781 L 19.632812 68.476562 L 9.289062 68.476562 L 9.289062 81.675781 L 0.125 81.675781 Z M 36.5 48.40625 L 58.902344 48.40625 L 58.902344 55.777344 L 45.667969 55.777344 L 45.667969 60.988281 L 56.980469 60.988281 L 56.980469 68.359375 L 45.667969 68.359375 L 45.667969 74.304688 L 59.417969 74.304688 L 59.417969 81.675781 L 36.5 81.675781 Z M 66.148438 48.40625 L 75.3125 48.40625 L 75.3125 74.304688 L 88.421875 74.304688 L 88.421875 81.675781 L 66.125 81.675781 L 66.125 48.40625 Z M 94.410156 48.40625 L 103.90625 48.40625 L 109.335938 62.214844 L 111.257812 67.644531 L 111.464844 67.644531 L 113.382812 62.214844 L 118.605469 48.40625 L 128.101562 48.40625 L 128.101562 81.675781 L 119.578125 81.675781 L 119.578125 71.847656 C 119.578125 70.996094 119.617188 70.0625 119.699219 69.03125 C 119.785156 68.003906 119.886719 66.953125 119.988281 65.882812 C 120.09375 64.8125 120.214844 63.761719 120.359375 62.730469 C 120.503906 61.703125 120.628906 60.789062 120.734375 59.976562 L 120.527344 59.976562 L 117.65625 67.765625 L 112.867188 78.980469 L 109.460938 78.980469 L 104.671875 67.765625 L 101.90625 59.976562 L 101.699219 59.976562 C 101.800781 60.789062 101.925781 61.722656 102.070312 62.730469 C 102.214844 63.761719 102.339844 64.8125 102.441406 65.882812 C 102.542969 66.953125 102.648438 68.003906 102.730469 69.03125 C 102.8125 70.0625 102.855469 70.996094 102.855469 71.847656 L 102.855469 81.675781 L 94.429688 81.675781 L 94.429688 48.40625 Z M 94.410156 48.40625 "/>
</g>
</svg>

<svg xmlns="http://www.w3.org/2000/svg" viewBox="0 0 128 128">
    <path d="M90.133 95.84c2.144-1.445 7.082 1.726 10.984 7.094 3.899 5.37 5.344 10.898 3.176 12.343-2.145 1.45-7.078-1.722-10.98-7.09-3.903-5.37-5.329-10.898-3.18-12.347Zm-51.531 0c-2.149-1.445-7.082 1.726-10.985 7.094-3.922 5.37-5.344 10.898-3.18 12.343 2.168 1.45 7.083-1.722 10.985-7.09 3.902-5.37 5.348-10.898 3.18-12.347Zm25.746 8.402c-2.625 0-4.77 5.313-4.77 11.871 0 6.559 2.125 11.867 4.77 11.867 2.64 0 4.77-5.308 4.77-11.867 0-6.558-2.15-11.87-4.77-11.87Zm25.785-72.004c2.144 1.446 7.082-1.722 10.984-7.093 3.899-5.372 5.344-10.899 3.176-12.344-2.145-1.446-7.078 1.722-10.98 7.094-3.903 5.367-5.329 10.898-3.18 12.343Zm-51.531 0c-2.149 1.446-7.082-1.722-10.985-7.093-3.902-5.372-5.344-10.88-3.18-12.344 2.168-1.469 7.083 1.722 10.985 7.094 3.902 5.367 5.348 10.898 3.18 12.343Zm25.746-8.402c-2.625 0-4.77-5.309-4.77-11.867 0-6.559 2.125-11.871 4.77-11.871 2.64 0 4.77 5.312 4.77 11.87 0 6.56-2.15 11.868-4.77 11.868Zm0 0" fill="#277a9f"/>
    <path d="M470.2 215.593c-37.198-61.193-104.594-102.1-181.508-102.1-74.888 0-140.695 38.699-178.386 97.211m3.993 235.291c38.295 55.102 102.097 91.1 174.393 91.1 72.41 0 136.307-36.196 174.602-91.396" transform="matrix(.20645 0 0 .19814 4 .04)" fill="none" stroke-width="30" stroke="#277a9f"/>
    <path d="M.125 48.406h9.164V60.79h10.344V48.406H28.8v33.27h-9.168v-13.2H9.289v13.2H.125Zm36.375 0h22.402v7.371H45.668v5.211H56.98v7.371H45.668v5.946h13.75v7.37H36.5Zm29.648 0h9.165v25.899h13.109v7.37H66.125V48.407Zm28.262 0h9.496l5.43 13.809 1.922 5.43h.207l1.918-5.43 5.222-13.809h9.497v33.27h-8.524v-9.828c0-.852.04-1.785.121-2.817.086-1.027.188-2.078.29-3.148.105-1.07.226-2.121.37-3.153.145-1.027.27-1.94.375-2.753h-.207l-2.87 7.789-4.79 11.214h-3.406l-4.79-11.214-2.765-7.79h-.207c.102.813.227 1.747.371 2.754.145 1.032.27 2.083.371 3.153.102 1.07.207 2.12.29 3.148a35.72 35.72 0 0 1 .124 2.817v9.828H94.43v-33.27Zm0 0" fill="#277a9f"/>
</svg>
